projects/samara2/images/icons/pin-orange.svg

<svg width="26" height="34" viewBox="0 0 26 34" fill="none" xmlns="http://www.w3.org/2000/svg">
<path d="M13 0C5.83254 0 0 5.91035 0 13.1734C0 15.9466 0.843389 18.6005 2.46108 20.8775L11.5147 33.2465C11.8647 33.7206 12.416 34 13 34H13.0019C13.5859 34 14.1372 33.7188 14.4872 33.2446L23.9071 20.3335C25.2765 18.2017 26 15.7261 26 13.1734C26 5.91035 20.1675 0 13 0ZM13 18.8192C9.92779 18.8192 7.42857 16.2866 7.42857 13.1734C7.42857 10.0602 9.92779 7.52767 13 7.52767C16.0722 7.52767 18.5714 10.0602 18.5714 13.1734C18.5714 16.2866 16.0722 18.8192 13 18.8192Z" fill="#E46821"/>
</svg>

<svg width="26" height="34" fill="none" xmlns="http://www.w3.org/2000/svg"><path d="M13 0C5.833 0 0 5.91 0 13.173c0 2.774.843 5.428 2.461 7.705l9.054 12.368c.35.475.901.754 1.485.754h.002a1.85 1.85 0 001.485-.755l9.42-12.911A13.217 13.217 0 0026 13.174C26 5.91 20.168 0 13 0zm0 18.82c-3.072 0-5.571-2.533-5.571-5.647 0-3.113 2.499-5.645 5.571-5.645 3.072 0 5.571 2.532 5.571 5.645 0 3.114-2.499 5.646-5.571 5.646z" fill="#E46821"/></svg>
